X:1
T:Title
%%score { ( 1 3 5 ) | ( 2 4 ) }
L:1/8
M:4/4
K:Bb
V:1 treble nm="Grand Piano"
V:3 treble 
V:5 treble 
V:2 bass 
V:4 bass 
V:1
 z4 z2[Q:1/4=116] DE | [DF]2 [Fd]2 [EA]2 [B,FB]2 | [EGc]2 z2 E2 G_A | A2 e2 e2 e2 | %4
[M:3/4] (3[F-Bd-][F-Ad-][F-cd-] [Fd-]2 d2 |[M:1/4] DE |[M:4/4] [DF]2 [Fd]2 [EA]2 [FB]2 | %7
 [Gc]2 z2 E2 .G2 | [FA]2 [Cc]2 [=EB]2 [CEG]2 |[M:3/4] [A,CF]6 |[M:1/4] z2 | %11
[M:4/4] [Fe]2 [^Fe]2 [Ge]2 [_Ae]2 | z2 [FAe]4 z2 | [Fd]2 [Bd]2 [Ad]2 [Gd]2 |[M:3/4] [Fd]6 | %15
[M:1/4] [_Ad] z |[M:4/4] [EGc]2 [B,EGB]2 [_DA]2 [B,DG]2 | B,2- [B,-FB]2 [B,-Fd]2 [B,-Ge]2 | %18
 [B,-Fd]3 [B,FB] [_D=EB]2 [_EA]2 |[M:3/4] [DB]6 |] %20
V:2
 z8 | [B,,B,]4 [C,F,]2 D,2 | C,2 [G,CE]2 [G,C]2 z2 | [F,E]2[K:treble] [^F,_A]2 [G,G]2 [A,^F]2 | %4
[M:3/4][K:bass] [B,,B,]2 [F,B,D]2 [F,B,D]2 |[M:1/4] z2 |[M:4/4] [B,,B,]4 [C,F,]2 [D,B,]2 | %7
 [F,E]2 [G,CE]2[K:treble] [G,C]2 =E_A | C,2 A,2 C,2 B,2 |[M:3/4] F,2 C,2 F,,2 | %10
[M:1/4][K:treble] FF |[M:4/4][K:bass] [A,,A,]2 [_A,,_A,]2 [G,,G,]2 [^F,,^F,]2 | %12
 [F,,F,]2 [F,A,C]2 F,2[K:treble] FF | B,,2 [F,B,D]2 B,,2 [F,B,D]2 |[M:3/4] B,,2 F,2 F,2 | %15
[M:1/4][K:treble] Fd |[M:4/4][K:bass] E,2 G,2 =E,2 G,2 | F,2 D,2 B,,2 E,2 | z2 z D z2 C2 | %19
[M:3/4] B,,6 |] %20
V:3
 x8 | x8 | z2 G4 z2 | x8 |[M:3/4] z2 (3BAG z z/ E/ |[M:1/4] x2 |[M:4/4] x8 | z2 G4 z2 | x8 | %9
[M:3/4] x6 |[M:1/4] x2 |[M:4/4] x8 | [FAe]2 z2 [A,C]2 z2 | x8 |[M:3/4] z2 [B,D]2 [B,D]2 | %15
[M:1/4] x2 |[M:4/4] x8 | [DF]2 z2 z4 | x8 |[M:3/4] x6 |] %20
V:4
 x8 | x8 | x8 | C8[K:treble] |[M:3/4][K:bass] x6 |[M:1/4] x2 |[M:4/4] x8 | x4[K:treble] x4 | x8 | %9
[M:3/4] x6 |[M:1/4][K:treble] x2 |[M:4/4][K:bass] x8 | x6[K:treble] x2 | x8 |[M:3/4] x6 | %15
[M:1/4][K:treble] x2 |[M:4/4][K:bass] x8 | x8 | F,4 F,4- |[M:3/4] F,6 |] %20
V:5
 x8 | x8 | x8 | x8 |[M:3/4] z2 z2 F2 |[M:1/4] x2 |[M:4/4] x8 | x8 | x8 |[M:3/4] x6 |[M:1/4] x2 | %11
[M:4/4] x8 | x8 | x8 |[M:3/4] x6 |[M:1/4] x2 |[M:4/4] x8 | x8 | x8 |[M:3/4] x6 |] %20

